X:1
T:Kijaa papa
T:KIJAA PAPA 
T:Harm; Longoli Joseph
C:Harm; Longoli Joseph
%%score [ ( 1 2 ) ( 3 4 ) ]
L:1/8
Q:1/4=118
M:6/8
K:F
V:1 treble nm="Women"
V:2 treble 
V:3 bass nm="Men"
V:4 bass 
V:1
"^Allegretto" c c2 dcc | AAG A F2 | (D4 F2) | C6 | GGG GFF | DD C3 F | FFF FDF | F2 F4 :: %8
w: Ki- jaa Pa- pa nga-|i- na- ki- ne- ta|Ee *||ki- si- bus i- yong E-|ka- po- lon o-|ya- ria- ta isu- a ngi-|koni- dwe|
w: ||||||||
w: ||||||||
w: ||||||||
w: ||||||||
 A2 (G G) A2 | F6 | (D4 F2) | C6 | GGG GFF | DD C3 F | FFF FDF | F2 !fermata!F4 :| %16
w: 1.A- mu- * gati|na|||||||
w: 2.E- vi- * ni|lo|||||||
w: 3.Ngi- si- li- nga|lu|Eee *||ki- si- bus i- yong E-|ka- po- lon o-|ya- ria- ta isu- a ngi-|koni- dwe|
w: 4.Ngi- mo- * mwa|lu|||||||
w: 5.A- mu- ro- not|na|||||||
V:2
 A A2 GAA | FFE F D2 | (B,3 A,) D2 | A,3 (CD)C | DDD DDD | B,>B, A,3 C | CDD CB,D | C>D C4 :: %8
w: |||* Ee * *|||||
w: |* * * * Aa|||||||
w: ||||||||
 FE(D E) F2 | (C4 D2) | (B,3 A,) D2 | A,3 (CD)C | DDD DDD | B,>B, A,3 C | CDD CB,D | C>D C4 :| %16
w: ||||||||
w: ||||||||
w: |||* Ee * *|||||
V:3
 z F,>F, z A,>A, | z C>C z B,2 | (D3 C) =B,2 | C3 (A,B,)A, | B,>B,B, B,B,B, | G,G, F,3 A, | %6
 A,>CC A,B,A, | B,G, A,4 :: z6 | z6 | (D3 C) =B,2 | C3 (A,B,)A, | B,>B,B, B,B,B, | G,G, F,3 A, | %14
 A,>CC A,B,A, | B,G, A,4 :| %16
V:4
 z C,>C, z D,>D, | z B,,>B,, z D,E, | (F,3 D,) G,2 | C,2 (D, D,/)E,/ F,2 | z4 z2 | z4 z F, | %6
w: Ki- jaa Pa- pa|ki- jaa Pa- pa||* Ee * * *|||
 D,D,A,, A,,B,,>B,, | C,2 F,4 :: x6 | x6 | (F,3 D,) G,2 | C,2 (D, D,/)E,/ F,2 | z4 z2 | z4 z F, | %14
w: |||||* Ee * * *|||
 D,D,A,, A,,B,,>B,, | C,2 F,4 :| %16
w: ||

